X: 82
T: 82. O gro\sser Gott von Macht
N: Derived from chor082.krn
C: Johann Sebastian Bach
%%abc-version 2.0
%%abcx-abcm2ps-target-version 5.9.1 (29 Sep 2008)
%%abc-creator hum2abc beta
%%abcx-conversion-date 2019/03/11 17:28:18
%%abc-edited-by Craig Stuart Sapp
%%humdrum-veritas 867848456
%%humdrum-veritas-data 2446130239
%%
%%barnumbers 0
L: 1/4
M: C
%%staves [1 2 3 4]
V: 1 clef=treble
V: 2 clef=treble
V: 3 clef=treble-8
V: 4 clef=bass
K: F
[V:1] A [I:setbarnb 1]| 
[V:2] ^F | 
[V:3] d | 
[V:4] D, | 
[V:1] BcdA/=B/ | 
[V:2] G=FFF | 
[V:3] dcBf | 
[V:4] G,A,B,D | 
[V:1] !fermata!c2zG | 
[V:2] !fermata!G2x_E | 
[V:3] !fermata!_e2xc | 
[V:4] !fermata!C2zC | 
[V:1] GABc | 
[V:2] =E^FGA | 
[V:3] ccd_e | 
[V:4] B,A,G,C, | 
[V:1] !fermata!A2zF | 
[V:2] !fermata!^F2xD | 
[V:3] !fermata!d2xA | 
[V:4] !fermata!D,2zD,/C,/ | 
[V:1] FGAB | 
[V:2] DEF_E | 
[V:3] BBcB | 
[V:4] B,,/B,/A,/G,/F,G, | 
[V:1] !fermata!c2zd | 
[V:2] !fermata!_E2xD | 
[V:3] !fermata!f2xf | 
[V:4] !fermata!A,2zB, | 
[V:1] B/c/dcc | 
[V:2] G/A/BBA | 
[V:3] _effc | 
[V:4] _E,D,/E,/F,F,, | 
[V:1] !fermata!B2zd | 
[V:2] !fermata!F2xF | 
[V:3] !fermata!d2xB | 
[V:4] !fermata!B,,2zB,/A,/ | 
[V:1] ddcc | 
[V:2] GGGD | 
[V:3] BBBA- | 
[V:4] G,F,=E,^F, | 
[V:1] BB!fermata!A2 | 
[V:2] DE!fermata!^F2 | 
[V:3] AG!fermata!A2 | 
[V:4] G,G,,!fermata!D,2 | 
[V:1] zABA | 
[V:2] x^FG=F | 
[V:3] xddc | 
[V:4] zD,G,,A,, | 
[V:1] GGFF | 
[V:2] FEDD | 
[V:3] dGAG | 
[V:4] =B,,C,2B,, | 
[V:1] !fermata!E2zG | 
[V:2] !fermata!C2xD- | 
[V:3] !fermata!G2xG | 
[V:4] !fermata!C,2z_B,, | 
[V:1] GA/B/cB | 
[V:2] D/C/FG/A/ D/G/ | 
[V:3] Gdc/A/ B/G/ | 
[V:4] _E,D,=E,/^F,/G, | 
[V:1] A2!fermata!G2 | 
[V:2] G^F!fermata!D2 | 
[V:3] _eA!fermata!B2 | 
[V:4] C,D,!fermata!G,,2 | 
[V:1] zGGA/=B/ | 
[V:2] xD_EF | 
[V:3] x=Bcf | 
[V:4] zF,_E,D, | 
[V:1] c_BA2 | 
[V:2] GGG/F/=E | 
[V:3] _ed^c/d^c/ | 
[V:4] C,G,,A,,2 | 
[V:1] !fermata!A4 |]  
[V:2] !fermata!^F4 |]  
[V:3] !fermata!d4 |]  
[V:4] !fermata!D,4 |]  



